X: 16
T: CONFESSE
B: "FIFTY OLD ENGLISH FOLK DANCE AIRS", Edgar H. Hunt ed., Schott & Co. Ltd. pub., London 1939
Z: 2004-2014 John Chambers <jc:trillian.mit.edu>
M: 6/8
L: 1/8
K: Em
|:\
E2F G2A | B2B B2B |\
c3 B2B | e3 ^d3 :|\
|:\
(f2d) g2e | (fd2) B2c |
(dB2) A2B | (BA2) B3 |\
G2A B>cB | (cB2) A3 |\
(B2e) ^d2e | (f^d2) e3 :|

%%sep 1 1 500
%%sep 1 1 500
